svgs/regular/train-tunnel.svg

<svg xmlns="http://www.w3.org/2000/svg" viewBox="0 0 512 512"><!--! Font Awesome Pro 6.6.0 by @fontawesome - https://fontawesome.com License - https://fontawesome.com/license (Commercial License) Copyright 2024 Fonticons, Inc. --><path d="M48 256C48 141.1 141.1 48 256 48s208 93.1 208 208l0 232c0 13.3 10.7 24 24 24s24-10.7 24-24l0-232C512 114.6 397.4 0 256 0S0 114.6 0 256L0 488c0 13.3 10.7 24 24 24s24-10.7 24-24l0-232zm304-48l0 48-192 0 0-48c0-17.7 14.3-32 32-32l128 0c17.7 0 32 14.3 32 32zM160 368l0-64 192 0 0 64c0 17.7-14.3 32-32 32l-128 0c-17.7 0-32-14.3-32-32zm32-240c-44.2 0-80 35.8-80 80l0 160c0 27.7 14.1 52.2 35.5 66.5L111 471c-9.4 9.4-9.4 24.6 0 33.9s24.6 9.4 33.9 0l57-57 108.1 0 57 57c9.4 9.4 24.6 9.4 33.9 0s9.4-24.6 0-33.9l-36.5-36.5C385.9 420.2 400 395.7 400 368l0-160c0-44.2-35.8-80-80-80l-128 0zm96 224a32 32 0 1 0 -64 0 32 32 0 1 0 64 0z"/></svg>

<svg xmlns="http://www.w3.org/2000/svg" viewBox="0 0 512 512"><!--! Font Awesome Pro 6.4.0 by @fontawesome - https://fontawesome.com License - https://fontawesome.com/license (Commercial License) Copyright 2023 Fonticons, Inc. --><path d="M48 256C48 141.1 141.1 48 256 48s208 93.1 208 208V488c0 13.3 10.7 24 24 24s24-10.7 24-24V256C512 114.6 397.4 0 256 0S0 114.6 0 256V488c0 13.3 10.7 24 24 24s24-10.7 24-24V256zm304-48v48H160V208c0-17.7 14.3-32 32-32H320c17.7 0 32 14.3 32 32zM160 368V304H352v64c0 17.7-14.3 32-32 32H192c-17.7 0-32-14.3-32-32zm32-240c-44.2 0-80 35.8-80 80V368c0 27.7 14.1 52.2 35.5 66.5L111 471c-9.4 9.4-9.4 24.6 0 33.9s24.6 9.4 33.9 0l57-57H310.1l57 57c9.4 9.4 24.6 9.4 33.9 0s9.4-24.6 0-33.9l-36.5-36.5C385.9 420.2 400 395.7 400 368V208c0-44.2-35.8-80-80-80H192zm96 224a32 32 0 1 0 -64 0 32 32 0 1 0 64 0z"/></svg>
